svgs/sharp-regular/house-circle-exclamation.svg

<svg xmlns="http://www.w3.org/2000/svg" viewBox="0 0 640 512"><!--! Font Awesome Pro 6.6.0 by @fontawesome - https://fontawesome.com License - https://fontawesome.com/license (Commercial License) Copyright 2024 Fonticons, Inc. --><path d="M288 .5l15.5 13.2L514.8 193c-6.2-.7-12.5-1-18.8-1c-16.8 0-33.1 2.4-48.5 6.8L288 63.5 112 212.8 112 464l80 0 0-168 0-24 24 0 132.5 0c-9.5 14.6-17 30.8-21.8 48L240 320l0 144 96 0 12.5 0c12.3 18.8 28 35.1 46.3 48L88 512l-24 0 0-24 0-234.5L39.5 274.3 8.5 237.7l264-224L288 .5zM496 224a144 144 0 1 1 0 288 144 144 0 1 1 0-288zm16 224l0-32-32 0 0 32 32 0zm0-176l-32 0 0 16 0 80 0 16 32 0 0-16 0-80 0-16z"/></svg>

<svg xmlns="http://www.w3.org/2000/svg" viewBox="0 0 640 512"><!--! Font Awesome Pro 6.4.0 by @fontawesome - https://fontawesome.com License - https://fontawesome.com/license (Commercial License) Copyright 2023 Fonticons, Inc. --><path d="M288 .5l15.5 13.2L514.8 193c-6.2-.7-12.5-1-18.8-1c-16.8 0-33.1 2.4-48.5 6.8L288 63.5 112 212.8V464h80V296 272h24H348.5c-9.5 14.6-17 30.8-21.8 48H240V464h96l12.5 0c12.3 18.8 28 35.1 46.3 48H88 64V488 253.5L39.5 274.3 8.5 237.7l264-224L288 .5zM496 224a144 144 0 1 1 0 288 144 144 0 1 1 0-288zm16 224V416H480v32h32zm0-176H480v16 80 16h32V368 288 272z"/></svg>
